symbols/web/switch_video/materialsymbolsrounded/switch_video_wght100fill1_20px.svg

<svg xmlns="http://www.w3.org/2000/svg" height="20" width="20"><path d="M6.667 11.979q.104.104.218.094.115-.011.219-.115.125-.125.125-.229 0-.104-.125-.229l-1.166-1.167h5.833l-1.188 1.188q-.104.104-.093.219.01.114.114.218.125.125.229.125.105 0 .229-.125l1.48-1.479q.125-.125.177-.239.052-.115.052-.24 0-.125-.052-.24-.052-.114-.177-.239l-1.5-1.5q-.104-.104-.219-.094-.115.011-.219.115-.125.125-.125.229 0 .104.125.229l1.167 1.167H5.938l1.187-1.188q.104-.104.094-.219-.011-.114-.115-.218-.125-.125-.229-.125-.104 0-.229.125L5.167 9.521q-.125.125-.177.239-.052.115-.052.24 0 .125.052.24.052.114.177.239Zm-2.063 3.604q-.583 0-.958-.375t-.375-.958v-8.5q0-.583.375-.958t.958-.375h8.5q.584 0 .958.375.376.375.376.958v3.729l1.645-1.646q.209-.208.427-.083.219.125.219.354v3.792q0 .229-.219.354-.218.125-.427-.083l-1.645-1.646v3.729q0 .583-.376.958-.374.375-.958.375Z"/></svg>

<svg xmlns="http://www.w3.org/2000/svg" height="20" width="20"><path d="M6.667 11.979Q6.771 12.083 6.885 12.073Q7 12.062 7.104 11.958Q7.229 11.833 7.229 11.729Q7.229 11.625 7.104 11.5L5.938 10.333H11.771L10.583 11.521Q10.479 11.625 10.49 11.74Q10.5 11.854 10.604 11.958Q10.729 12.083 10.833 12.083Q10.938 12.083 11.062 11.958L12.542 10.479Q12.667 10.354 12.719 10.24Q12.771 10.125 12.771 10Q12.771 9.875 12.719 9.76Q12.667 9.646 12.542 9.521L11.042 8.021Q10.938 7.917 10.823 7.927Q10.708 7.938 10.604 8.042Q10.479 8.167 10.479 8.271Q10.479 8.375 10.604 8.5L11.771 9.667H5.938L7.125 8.479Q7.229 8.375 7.219 8.26Q7.208 8.146 7.104 8.042Q6.979 7.917 6.875 7.917Q6.771 7.917 6.646 8.042L5.167 9.521Q5.042 9.646 4.99 9.76Q4.938 9.875 4.938 10Q4.938 10.125 4.99 10.24Q5.042 10.354 5.167 10.479ZM4.604 15.583Q4.021 15.583 3.646 15.208Q3.271 14.833 3.271 14.25V5.75Q3.271 5.167 3.646 4.792Q4.021 4.417 4.604 4.417H13.104Q13.688 4.417 14.062 4.792Q14.438 5.167 14.438 5.75V9.479L16.083 7.833Q16.292 7.625 16.51 7.75Q16.729 7.875 16.729 8.104V11.896Q16.729 12.125 16.51 12.25Q16.292 12.375 16.083 12.167L14.438 10.521V14.25Q14.438 14.833 14.062 15.208Q13.688 15.583 13.104 15.583Z"/></svg>
